svg/u1f4f2.svg

<svg viewBox="0 0 128 128" xmlns="http://www.w3.org/2000/svg">
  <g>
    <path d="M29.7,41.3c-1.9,0-3.7,1.5-3.7,3.7v7.6c0,1.4-1.1,2.5-2.5,2.5h-15C6,55,4,57,4,59.5v9.9 C4,71.9,6.1,74,8.6,74h14.9c1.4,0,2.5,1.1,2.5,2.5V83c0,2.2,1.8,3.7,3.7,3.7c0.9,0,1.8-0.3,2.6-1.1l18.3-18.3 c1.8-1.8,1.9-4.8,0-6.7L32.3,42.4C31.5,41.6,30.6,41.3,29.7,41.3z" fill="#B0BEC5"/>
    <g>
      <path d="M113.74,124h-46.8c-4.7,0-8.6-3.8-8.6-8.6V12.6c0-4.7,3.9-8.6,8.6-8.6h46.8c4.7,0,8.6,3.8,8.6,8.6 v102.9C122.34,120.2,118.44,124,113.74,124z" fill="#424242"/>
      <path d="M113.11,120.11H66.26c-2.15,0-3.89-1.74-3.89-3.89V19.65c0-2.14,1.74-3.88,3.88-3.88h48.15c2.15,0,3.89,1.74,3.89,3.89 v95.93C118.3,116.52,116.9,120.11,113.11,120.11z"/>
      <path d="M99.99,11.59h-19.2c-0.7,0-1.2-0.6-1.2-1.2s0.6-1.2,1.2-1.2h19.1c0.7,0,1.2,0.6,1.2,1.2 S100.59,11.59,99.99,11.59z" fill="#212121"/>
      <path d="M113.74,6c3.64,0,6.6,2.96,6.6,6.6v102.9c0,3.58-2.96,6.5-6.6,6.5h-46.8c-3.64,0-6.6-2.96-6.6-6.6 V12.6c0-3.58,3.02-6.6,6.6-6.6H113.74 M113.74,4h-46.8c-4.7,0-8.6,3.9-8.6,8.6v102.8c0,4.8,3.9,8.6,8.6,8.6h46.8 c4.7,0,8.6-3.8,8.6-8.5V12.6C122.34,7.8,118.44,4,113.74,4L113.74,4z" fill="#757575"/>
      <g>
        <path d="M74.68,29.96h-6.36c-0.73,0-1.32-0.59-1.32-1.32v-6.36c0-0.73,0.59-1.32,1.32-1.32h6.36 c0.73,0,1.32,0.59,1.32,1.32v6.36C76,29.37,75.41,29.96,74.68,29.96z" fill="#EAB56E"/>
        <path d="M87.24,29.96h-6.36c-0.73,0-1.32-0.59-1.32-1.32v-6.36c0-0.73,0.59-1.32,1.32-1.32h6.36 c0.73,0,1.32,0.59,1.32,1.32v6.36C88.56,29.37,87.97,29.96,87.24,29.96z" fill="#FB8C00"/>
        <path d="M99.79,29.96h-6.36c-0.73,0-1.32-0.59-1.32-1.32v-6.36c0-0.73,0.59-1.32,1.32-1.32h6.36 c0.73,0,1.32,0.59,1.32,1.32v6.36C101.11,29.37,100.52,29.96,99.79,29.96z" fill="#FF80AB"/>
        <path d="M112.34,29.96h-6.36c-0.73,0-1.32-0.59-1.32-1.32v-6.36c0-0.73,0.59-1.32,1.32-1.32h6.36 c0.73,0,1.32,0.59,1.32,1.32v6.36C113.67,29.37,113.07,29.96,112.34,29.96z" fill="#0288D1"/>
        <path d="M74.68,44.12h-6.36c-0.73,0-1.32-0.59-1.32-1.32v-6.36c0-0.73,0.59-1.32,1.32-1.32h6.36 c0.73,0,1.32,0.59,1.32,1.32v6.36C76,43.53,75.41,44.12,74.68,44.12z" fill="#00BFA5"/>
        <path d="M87.24,44.12h-6.36c-0.73,0-1.32-0.59-1.32-1.32v-6.36c0-0.73,0.59-1.32,1.32-1.32h6.36 c0.73,0,1.32,0.59,1.32,1.32v6.36C88.56,43.53,87.97,44.12,87.24,44.12z" fill="#81D4FA"/>
        <path d="M99.79,44.12h-6.36c-0.73,0-1.32-0.59-1.32-1.32v-6.36c0-0.73,0.59-1.32,1.32-1.32h6.36 c0.73,0,1.32,0.59,1.32,1.32v6.36C101.11,43.53,100.52,44.12,99.79,44.12z" fill="#FB8C00"/>
        <path d="M112.34,44.12h-6.36c-0.73,0-1.32-0.59-1.32-1.32v-6.36c0-0.73,0.59-1.32,1.32-1.32h6.36 c0.73,0,1.32,0.59,1.32,1.32v6.36C113.67,43.53,113.07,44.12,112.34,44.12z" fill="#EAB56E"/>
        <path d="M74.68,58.28h-6.36c-0.73,0-1.32-0.59-1.32-1.32V50.6c0-0.73,0.59-1.32,1.32-1.32h6.36 c0.73,0,1.32,0.59,1.32,1.32v6.36C76,57.69,75.41,58.28,74.68,58.28z" fill="#FB8C00"/>
        <path d="M87.24,58.28h-6.36c-0.73,0-1.32-0.59-1.32-1.32V50.6c0-0.73,0.59-1.32,1.32-1.32h6.36 c0.73,0,1.32,0.59,1.32,1.32v6.36C88.56,57.69,87.97,58.28,87.24,58.28z" fill="#FF80AB"/>
        <path d="M99.79,58.28h-6.36c-0.73,0-1.32-0.59-1.32-1.32V50.6c0-0.73,0.59-1.32,1.32-1.32h6.36 c0.73,0,1.32,0.59,1.32,1.32v6.36C101.11,57.69,100.52,58.28,99.79,58.28z" fill="#00BFA5"/>
        <path d="M112.34,58.28h-6.36c-0.73,0-1.32-0.59-1.32-1.32V50.6c0-0.73,0.59-1.32,1.32-1.32h6.36 c0.73,0,1.32,0.59,1.32,1.32v6.36C113.67,57.69,113.07,58.28,112.34,58.28z" fill="#0288D1"/>
        <path d="M74.68,72.44h-6.36c-0.73,0-1.32-0.59-1.32-1.32v-6.36c0-0.73,0.59-1.32,1.32-1.32h6.36 c0.73,0,1.32,0.59,1.32,1.32v6.36C76,71.85,75.41,72.44,74.68,72.44z" fill="#0288D1"/>
        <path d="M87.24,72.44h-6.36c-0.73,0-1.32-0.59-1.32-1.32v-6.36c0-0.73,0.59-1.32,1.32-1.32h6.36 c0.73,0,1.32,0.59,1.32,1.32v6.36C88.56,71.85,87.97,72.44,87.24,72.44z" fill="#81D4FA"/>
        <path d="M74.68,114.92h-6.36c-0.73,0-1.32-0.59-1.32-1.32v-6.36c0-0.73,0.59-1.32,1.32-1.32h6.36 c0.73,0,1.32,0.59,1.32,1.32v6.36C76,114.32,75.41,114.92,74.68,114.92z" fill="#81D4FA"/>
        <path d="M87.24,114.92h-6.36c-0.73,0-1.32-0.59-1.32-1.32v-6.36c0-0.73,0.59-1.32,1.32-1.32h6.36 c0.73,0,1.32,0.59,1.32,1.32v6.36C88.56,114.32,87.97,114.92,87.24,114.92z" fill="#0288D1"/>
        <path d="M99.79,114.92h-6.36c-0.73,0-1.32-0.59-1.32-1.32v-6.36c0-0.73,0.59-1.32,1.32-1.32h6.36 c0.73,0,1.32,0.59,1.32,1.32v6.36C101.11,114.32,100.52,114.92,99.79,114.92z" fill="#00BFA5"/>
        <path d="M112.34,114.92h-6.36c-0.73,0-1.32-0.59-1.32-1.32v-6.36c0-0.73,0.59-1.32,1.32-1.32h6.36 c0.73,0,1.32,0.59,1.32,1.32v6.36C113.67,114.32,113.07,114.92,112.34,114.92z" fill="#FF80AB"/>
      </g>
    </g>
  </g>
</svg>

<svg viewBox="0 0 128 128" xmlns="http://www.w3.org/2000/svg">
  <defs/>
  <path d="M29.7,41.3 C27.8,41.3 26,42.8 26,45 L26,52.6 C26,54 24.9,55.1 23.5,55.1 L8.5,55.1 C6,55 4,57 4,59.5 L4,69.4 C4,71.9 6.1,74 8.6,74 L23.5,74 C24.9,74 26,75.1 26,76.5 L26,83 C26,85.2 27.8,86.7 29.7,86.7 C30.6,86.7 31.5,86.4 32.3,85.6 L50.6,67.3 C52.4,65.5 52.5,62.5 50.6,60.6 L32.3,42.4 C31.5,41.6 30.6,41.3 29.7,41.3 Z" fill="#B0BEC5"/>
  <path d="M113.74,124 L66.94,124 C62.24,124 58.34,120.2 58.34,115.4 L58.34,12.6 C58.34,7.9 62.24,4 66.94,4 L113.74,4 C118.44,4 122.34,7.8 122.34,12.6 L122.34,115.5 C122.34,120.2 118.44,124 113.74,124 Z" fill="#424242"/>
  <path d="M113.11,120.11 L66.26,120.11 C64.11,120.11 62.37,118.37 62.37,116.22 L62.37,19.65 C62.37,17.51 64.11,15.77 66.25,15.77 L114.4,15.77 C116.55,15.77 118.29,17.51 118.29,19.66 L118.29,115.59 C118.3,116.52 116.9,120.11 113.11,120.11 Z"/>
  <path d="M99.99,11.59 L80.79,11.59 C80.09,11.59 79.59,10.99 79.59,10.39 C79.59,9.79 80.19,9.19 80.79,9.19 L99.89,9.19 C100.59,9.19 101.09,9.79 101.09,10.39 C101.09,10.99 100.59,11.59 99.99,11.59 Z" fill="#212121"/>
  <path d="M113.74,6 C117.38,6 120.34,8.96 120.34,12.6 L120.34,115.5 C120.34,119.08 117.38,122 113.74,122 L66.94,122 C63.3,122 60.34,119.04 60.34,115.4 L60.34,12.6 C60.34,9.02 63.36,6 66.94,6 L113.74,6 M113.74,4 L66.94,4 C62.24,4 58.34,7.9 58.34,12.6 L58.34,115.4 C58.34,120.2 62.24,124 66.94,124 L113.74,124 C118.44,124 122.34,120.2 122.34,115.5 L122.34,12.6 C122.34,7.8 118.44,4 113.74,4 L113.74,4 Z" fill="#757575"/>
  <path d="M74.68,29.96 L68.32,29.96 C67.59,29.96 67,29.37 67,28.64 L67,22.28 C67,21.55 67.59,20.96 68.32,20.96 L74.68,20.96 C75.41,20.96 76,21.55 76,22.28 L76,28.64 C76,29.37 75.41,29.96 74.68,29.96 Z" fill="#EAB56E"/>
  <path d="M87.24,29.96 L80.88,29.96 C80.15,29.96 79.56,29.37 79.56,28.64 L79.56,22.28 C79.56,21.55 80.15,20.96 80.88,20.96 L87.24,20.96 C87.97,20.96 88.56,21.55 88.56,22.28 L88.56,28.64 C88.56,29.37 87.97,29.96 87.24,29.96 Z" fill="#FB8C00"/>
  <path d="M99.79,29.96 L93.43,29.96 C92.7,29.96 92.11,29.37 92.11,28.64 L92.11,22.28 C92.11,21.55 92.7,20.96 93.43,20.96 L99.79,20.96 C100.52,20.96 101.11,21.55 101.11,22.28 L101.11,28.64 C101.11,29.37 100.52,29.96 99.79,29.96 Z" fill="#FF80AB"/>
  <path d="M112.34,29.96 L105.98,29.96 C105.25,29.96 104.66,29.37 104.66,28.64 L104.66,22.28 C104.66,21.55 105.25,20.96 105.98,20.96 L112.34,20.96 C113.07,20.96 113.66,21.55 113.66,22.28 L113.66,28.64 C113.67,29.37 113.07,29.96 112.34,29.96 Z" fill="#0288D1"/>
  <path d="M74.68,44.12 L68.32,44.12 C67.59,44.12 67,43.53 67,42.8 L67,36.44 C67,35.71 67.59,35.12 68.32,35.12 L74.68,35.12 C75.41,35.12 76,35.71 76,36.44 L76,42.8 C76,43.53 75.41,44.12 74.68,44.12 Z" fill="#00BFA5"/>
  <path d="M87.24,44.12 L80.88,44.12 C80.15,44.12 79.56,43.53 79.56,42.8 L79.56,36.44 C79.56,35.71 80.15,35.12 80.88,35.12 L87.24,35.12 C87.97,35.12 88.56,35.71 88.56,36.44 L88.56,42.8 C88.56,43.53 87.97,44.12 87.24,44.12 Z" fill="#81D4FA"/>
  <path d="M99.79,44.12 L93.43,44.12 C92.7,44.12 92.11,43.53 92.11,42.8 L92.11,36.44 C92.11,35.71 92.7,35.12 93.43,35.12 L99.79,35.12 C100.52,35.12 101.11,35.71 101.11,36.44 L101.11,42.8 C101.11,43.53 100.52,44.12 99.79,44.12 Z" fill="#FB8C00"/>
  <path d="M112.34,44.12 L105.98,44.12 C105.25,44.12 104.66,43.53 104.66,42.8 L104.66,36.44 C104.66,35.71 105.25,35.12 105.98,35.12 L112.34,35.12 C113.07,35.12 113.66,35.71 113.66,36.44 L113.66,42.8 C113.67,43.53 113.07,44.12 112.34,44.12 Z" fill="#EAB56E"/>
  <path d="M74.68,58.28 L68.32,58.28 C67.59,58.28 67,57.69 67,56.96 L67,50.6 C67,49.87 67.59,49.28 68.32,49.28 L74.68,49.28 C75.41,49.28 76,49.87 76,50.6 L76,56.96 C76,57.69 75.41,58.28 74.68,58.28 Z" fill="#FB8C00"/>
  <path d="M87.24,58.28 L80.88,58.28 C80.15,58.28 79.56,57.69 79.56,56.96 L79.56,50.6 C79.56,49.87 80.15,49.28 80.88,49.28 L87.24,49.28 C87.97,49.28 88.56,49.87 88.56,50.6 L88.56,56.96 C88.56,57.69 87.97,58.28 87.24,58.28 Z" fill="#FF80AB"/>
  <path d="M99.79,58.28 L93.43,58.28 C92.7,58.28 92.11,57.69 92.11,56.96 L92.11,50.6 C92.11,49.87 92.7,49.28 93.43,49.28 L99.79,49.28 C100.52,49.28 101.11,49.87 101.11,50.6 L101.11,56.96 C101.11,57.69 100.52,58.28 99.79,58.28 Z" fill="#00BFA5"/>
  <path d="M112.34,58.28 L105.98,58.28 C105.25,58.28 104.66,57.69 104.66,56.96 L104.66,50.6 C104.66,49.87 105.25,49.28 105.98,49.28 L112.34,49.28 C113.07,49.28 113.66,49.87 113.66,50.6 L113.66,56.96 C113.67,57.69 113.07,58.28 112.34,58.28 Z" fill="#0288D1"/>
  <path d="M74.68,72.44 L68.32,72.44 C67.59,72.44 67,71.85 67,71.12 L67,64.76 C67,64.03 67.59,63.44 68.32,63.44 L74.68,63.44 C75.41,63.44 76,64.03 76,64.76 L76,71.12 C76,71.85 75.41,72.44 74.68,72.44 Z" fill="#0288D1"/>
  <path d="M87.24,72.44 L80.88,72.44 C80.15,72.44 79.56,71.85 79.56,71.12 L79.56,64.76 C79.56,64.03 80.15,63.44 80.88,63.44 L87.24,63.44 C87.97,63.44 88.56,64.03 88.56,64.76 L88.56,71.12 C88.56,71.85 87.97,72.44 87.24,72.44 Z" fill="#81D4FA"/>
  <path d="M74.68,114.92 L68.32,114.92 C67.59,114.92 67,114.33 67,113.6 L67,107.24 C67,106.51 67.59,105.92 68.32,105.92 L74.68,105.92 C75.41,105.92 76,106.51 76,107.24 L76,113.6 C76,114.32 75.41,114.92 74.68,114.92 Z" fill="#81D4FA"/>
  <path d="M87.24,114.92 L80.88,114.92 C80.15,114.92 79.56,114.33 79.56,113.6 L79.56,107.24 C79.56,106.51 80.15,105.92 80.88,105.92 L87.24,105.92 C87.97,105.92 88.56,106.51 88.56,107.24 L88.56,113.6 C88.56,114.32 87.97,114.92 87.24,114.92 Z" fill="#0288D1"/>
  <path d="M99.79,114.92 L93.43,114.92 C92.7,114.92 92.11,114.33 92.11,113.6 L92.11,107.24 C92.11,106.51 92.7,105.92 93.43,105.92 L99.79,105.92 C100.52,105.92 101.11,106.51 101.11,107.24 L101.11,113.6 C101.11,114.32 100.52,114.92 99.79,114.92 Z" fill="#00BFA5"/>
  <path d="M112.34,114.92 L105.98,114.92 C105.25,114.92 104.66,114.33 104.66,113.6 L104.66,107.24 C104.66,106.51 105.25,105.92 105.98,105.92 L112.34,105.92 C113.07,105.92 113.66,106.51 113.66,107.24 L113.66,113.6 C113.67,114.32 113.07,114.92 112.34,114.92 Z" fill="#FF80AB"/>
</svg>
